qdrant-landing/themes/qdrant-2024/static/img/home/hero/github-icon.svg

<svg preserveAspectRatio="none" width="100%" height="100%" overflow="visible" style="display: block;" viewBox="0 0 14 14" fill="none" xmlns="http://www.w3.org/2000/svg">
<path id="Vector" d="M7.00001 0C5.1435 0 3.36302 0.737498 2.05026 2.05025C0.73751 3.36301 1.17118e-05 5.14348 1.17118e-05 7C-0.00289544 8.61179 0.535492 10.1779 1.52886 11.4472C2.52222 12.7165 3.91302 13.6155 5.47827 14V12.1739H4.86958C3.27479 12.1739 2.71479 9.73913 1.8261 9.73913C3.52436 9.73913 3.85305 10.9565 4.86958 10.9565C4.95211 10.9675 5.03608 10.9594 5.11495 10.9327C5.19383 10.906 5.26549 10.8615 5.32437 10.8026C5.38325 10.7437 5.42776 10.6721 5.45446 10.5932C5.48115 10.5143 5.4893 10.4304 5.47827 10.3478V10.1348C3.70697 9.63565 2.43479 8.3087 2.43479 6.69565C2.44904 5.85649 2.79222 5.05648 3.39045 4.46783C3.23796 4.13875 3.18162 3.77326 3.22793 3.41353C3.27425 3.05381 3.42132 2.71451 3.65219 2.43478C4.20903 2.60195 4.70984 2.91759 5.10088 3.34783C6.32777 2.90226 7.67226 2.90226 8.89914 3.34783C9.29019 2.91759 9.791 2.60195 10.3478 2.43478C10.5787 2.71451 10.7258 3.05381 10.7721 3.41353C10.8184 3.77326 10.7621 4.13875 10.6096 4.46783C11.2078 5.05648 11.551 5.85649 11.5652 6.69565C11.5652 8.36348 10.1713 9.73913 8.2661 10.2017C8.46237 10.6282 8.55019 11.0966 8.52175 11.5652V14C10.087 13.6155 11.4778 12.7165 12.4712 11.4472C13.4645 10.1779 14.0029 8.61179 14 7C14 5.14348 13.2625 3.36301 11.9498 2.05025C10.637 0.737498 8.85653 0 7.00001 0Z" fill="var(--fill-0, #D4D9E6)"/>
</svg>

<svg xmlns="http://www.w3.org/2000/svg" fill="none" overflow="visible" preserveAspectRatio="none" style="display:block" viewBox="0 0 14 14"><path fill="var(--fill-0, #d4d9e6)" d="M7 0a7 7 0 0 0-7 7 7.195 7.195 0 0 0 5.478 7v-1.826H4.87c-1.595 0-2.155-2.435-3.044-2.435 1.698 0 2.027 1.217 3.044 1.217a.542.542 0 0 0 .608-.608v-.213c-1.771-.5-3.043-1.826-3.043-3.44a3.2 3.2 0 0 1 .955-2.227 1.92 1.92 0 0 1 .262-2.033 3.2 3.2 0 0 1 1.449.913 5.56 5.56 0 0 1 3.798 0c.391-.43.892-.746 1.449-.913a1.92 1.92 0 0 1 .262 2.033c.598.588.941 1.388.955 2.228 0 1.667-1.394 3.043-3.299 3.506.196.426.284.895.256 1.363V14A7.195 7.195 0 0 0 14 7a7 7 0 0 0-7-7"/></svg>
